X: 6407
T: Castle Of Dromore, The
R: waltz
M: 3/4
K: Dmajor
FG|A4 A2|A4 A2|B4 A2|A2 B2 c2|d4 G2|F4 G2|A6-|A4 Bc|
d4 D2|D4 D2|E4 D2|D2 E2 F2|G4 B2|A4 G2|F6-|F4 Bc|
d2 e2 d2|c2 d2 c2|B2 c2 B2|A4 G2|F4 A2|G2 F2 E2|D6|F4 A2|
G2 A2 G2|E4 G2|F2 G2 A2|D4 F2|G4 E2|D4 [C2E2]|D6-|D4||

